icons/1_Primary/Toyohashi University of Technology.svg

<svg width="1024" height="1024" viewBox="0 0 1024 1024" fill="none" xmlns="http://www.w3.org/2000/svg">
<g clip-path="url(#clip0_2_3702)">
<path d="M512 1024C794.77 1024 1024 794.77 1024 512C1024 229.23 794.77 0 512 0C229.23 0 0 229.23 0 512C0 794.77 229.23 1024 512 1024Z" fill="#54688C"/>
<path d="M663.33 296.79C686.33 290.67 710.1 287.16 733.89 288.59C755.22 289.71 776.56 296.59 793.53 309.77C800.515 315.158 806.337 321.904 810.646 329.601C814.954 337.299 817.66 345.789 818.6 354.56C819.831 366.514 818.407 378.591 814.43 389.93C808.482 404.409 798.135 416.652 784.85 424.93C790.72 435.93 795.06 447.81 796.55 460.2C798.2 477.41 796.05 495.2 789.29 511.15C780.586 531.449 765.104 548.097 745.49 558.25C726.08 567.13 704.49 570.81 683.26 570.51C665.65 569.98 647.94 567.31 631.38 561.15C650.22 561.15 669.66 556.7 684.86 545.08C697.039 536.19 705.702 523.297 709.33 508.66C713.57 491.85 710.57 473.79 702.86 458.43C695.26 442.38 680.21 430.87 663.86 424.73C643.57 417.1 621.41 415.88 599.98 417.66C574.306 420.135 549.112 426.236 525.15 435.78C488 450.28 452.73 469 418.87 489.86C380.33 515.98 339.46 539.15 295.62 555.18C275.95 562.18 255.7 568.18 234.83 570.1C243.25 552.287 251.677 534.474 260.11 516.66C261.47 513.9 262.53 510.96 264.27 508.41C306.12 504.08 346.57 491.12 385.33 475.18C400.14 468.68 415.08 462.46 429.62 455.35C457.85 441.58 485.45 426.5 512.71 410.91C544.06 392.46 577.84 378 613.12 369C641.862 362.515 671.633 362.032 700.57 367.58C716.18 370.84 731.97 375.19 745.44 384.02C757.706 391.606 768.46 401.398 777.16 412.9C780.672 406.033 782.575 398.457 782.726 390.746C782.877 383.034 781.271 375.389 778.03 368.39C771.56 354.01 757.78 344.39 743.42 339C724.6 332 704.22 330.2 684.3 331.13C659.3 331.66 634.84 338.02 611.3 346.13C594.339 352.092 577.775 359.13 561.71 367.2C553.85 371.03 546.46 375.72 538.78 379.89C509.78 396.04 480.57 411.89 451.36 427.62C413.36 447.03 372.77 461.21 331.29 471.08C313.383 475.425 295.239 478.731 276.95 480.98C285.95 461.74 295.21 442.6 304.15 423.31C347.21 420.49 390.06 412.87 431.15 399.54C462.265 389.407 492.497 376.738 521.54 361.66C548.833 347.894 576.077 334.03 603.27 320.07C622.403 310.192 642.538 302.388 663.33 296.79ZM436.09 499.54C402.73 520.24 373 546.39 338.52 565.33C301.41 585.65 260.52 599.5 218.52 604.64C207.32 628.247 196.15 651.874 185.01 675.52C217.65 673.37 250.34 665.36 279.09 649.45C312.769 630.163 343.725 606.471 371.14 579C387.48 563.92 404.75 549.74 423.67 538C437.5 529.51 452.36 522.15 468.42 519.12C443.87 571.33 419.05 623.44 394.42 675.63C453.42 675.63 512.42 675.57 571.42 675.68C605.587 603.98 639.587 532.197 673.42 460.33C664.86 460.39 656.31 460.33 647.77 460.33C618.977 521.297 590.14 582.25 561.26 643.19H472.77C501.55 582.13 530.61 521.19 559.3 460.09C532.93 458.88 507.12 466.3 482.72 475.57C466.3 481.81 450.89 490.25 436.09 499.54Z" fill="white"/>
</g>
<defs>
<clipPath id="clip0_2_3702">
<rect width="1024" height="1024" fill="white"/>
</clipPath>
</defs>
</svg>

<svg width="1024" height="1024" fill="none" xmlns="http://www.w3.org/2000/svg"><g clip-path="url(#a)"><path d="M512 1024c282.77 0 512-229.23 512-512S794.77 0 512 0 0 229.23 0 512s229.23 512 512 512Z" fill="#54688C"/><path d="M663.33 296.79c23-6.12 46.77-9.63 70.56-8.2 21.33 1.12 42.67 8 59.64 21.18a65.38 65.38 0 0 1 17.116 19.831 65.374 65.374 0 0 1 7.954 24.959 81.608 81.608 0 0 1-4.17 35.37 74.668 74.668 0 0 1-29.58 35c5.87 11 10.21 22.88 11.7 35.27 1.65 17.21-.5 35-7.26 50.95a95.349 95.349 0 0 1-43.8 47.1c-19.41 8.88-41 12.56-62.23 12.26-17.61-.53-35.32-3.2-51.88-9.36 18.84 0 38.28-4.45 53.48-16.07a64.219 64.219 0 0 0 24.47-36.42c4.24-16.81 1.24-34.87-6.47-50.23-7.6-16.05-22.65-27.56-39-33.7-20.29-7.63-42.45-8.85-63.88-7.07a273.034 273.034 0 0 0-74.83 18.12C488 450.28 452.73 469 418.87 489.86c-38.54 26.12-79.41 49.29-123.25 65.32-19.67 7-39.92 13-60.79 14.92 8.42-17.813 16.847-35.626 25.28-53.44 1.36-2.76 2.42-5.7 4.16-8.25 41.85-4.33 82.3-17.29 121.06-33.23 14.81-6.5 29.75-12.72 44.29-19.83 28.23-13.77 55.83-28.85 83.09-44.44C544.06 392.46 577.84 378 613.12 369a214.133 214.133 0 0 1 87.45-1.42c15.61 3.26 31.4 7.61 44.87 16.44a116.81 116.81 0 0 1 31.72 28.88 50.84 50.84 0 0 0 .87-44.51c-6.47-14.38-20.25-24-34.61-29.39-18.82-7-39.2-8.8-59.12-7.87-25 .53-49.46 6.89-73 15a422.912 422.912 0 0 0-49.59 21.07c-7.86 3.83-15.25 8.52-22.93 12.69-29 16.15-58.21 32-87.42 47.73-38 19.41-78.59 33.59-120.07 43.46a477.722 477.722 0 0 1-54.34 9.9c9-19.24 18.26-38.38 27.2-57.67 43.06-2.82 85.91-10.44 127-23.77a598.174 598.174 0 0 0 90.39-37.88 12843.686 12843.686 0 0 0 81.73-41.59 302.161 302.161 0 0 1 60.06-23.28ZM436.09 499.54c-33.36 20.7-63.09 46.85-97.57 65.79-37.11 20.32-78 34.17-120 39.31-11.2 23.607-22.37 47.234-33.51 70.88 32.64-2.15 65.33-10.16 94.08-26.07A436.51 436.51 0 0 0 371.14 579c16.34-15.08 33.61-29.26 52.53-41 13.83-8.49 28.69-15.85 44.75-18.88-24.55 52.21-49.37 104.32-74 156.51 59 0 118-.06 177 .05a50695.444 50695.444 0 0 0 102-215.35c-8.56.06-17.11 0-25.65 0-28.793 60.967-57.63 121.92-86.51 182.86h-88.49c28.78-61.06 57.84-122 86.53-183.1-26.37-1.21-52.18 6.21-76.58 15.48-16.42 6.24-31.83 14.68-46.63 23.97Z" fill="#fff"/></g><defs><clipPath id="a"><path fill="#fff" d="M0 0h1024v1024H0z"/></clipPath></defs></svg>
